build/svg/cmd/sc_searchdialog.svg

<?xml version="1.0" encoding="UTF-8" standalone="no"?>
<svg
   xmlns:dc="http://purl.org/dc/elements/1.1/"
   xmlns:cc="http://creativecommons.org/ns#"
   xmlns:rdf="http://www.w3.org/1999/02/22-rdf-syntax-ns#"
   xmlns:svg="http://www.w3.org/2000/svg"
   xmlns="http://www.w3.org/2000/svg"
   xmlns:sodipodi="http://sodipodi.sourceforge.net/DTD/sodipodi-0.dtd"
   xmlns:inkscape="http://www.inkscape.org/namespaces/inkscape"
   viewBox="0 0 16 16"
   version="1.1"
   id="svg6"
   sodipodi:docname="sc_searchdialog.svg"
   inkscape:version="0.92.4 (5da689c313, 2019-01-14)"
   inkscape:export-filename="/home/jupiter007/Libreoffice yaru theme fullcolor/build/cmd/sc_searchdialog.png"
   inkscape:export-xdpi="95"
   inkscape:export-ydpi="95">
  <metadata
     id="metadata12">
    <rdf:RDF>
      <cc:Work
         rdf:about="">
        <dc:format>image/svg+xml</dc:format>
        <dc:type
           rdf:resource="http://purl.org/dc/dcmitype/StillImage" />
      </cc:Work>
    </rdf:RDF>
  </metadata>
  <defs
     id="defs10" />
  <sodipodi:namedview
     pagecolor="#ffffff"
     bordercolor="#666666"
     borderopacity="1"
     objecttolerance="10"
     gridtolerance="10"
     guidetolerance="10"
     inkscape:pageopacity="0"
     inkscape:pageshadow="2"
     inkscape:window-width="1920"
     inkscape:window-height="1011"
     id="namedview8"
     showgrid="true"
     inkscape:zoom="45.254832"
     inkscape:cx="4.886621"
     inkscape:cy="9.2296593"
     inkscape:window-x="1920"
     inkscape:window-y="32"
     inkscape:window-maximized="1"
     inkscape:current-layer="svg6">
    <inkscape:grid
       type="xygrid"
       id="grid847" />
  </sodipodi:namedview>
  <path
     style="opacity:1;fill:#232600;fill-opacity:0;fill-rule:nonzero;stroke:none;stroke-width:0.001;stroke-linecap:butt;stroke-linejoin:round;stroke-miterlimit:4;stroke-dasharray:none;stroke-dashoffset:0;stroke-opacity:1"
     d="M 18.5 5 A 4.5 4.5 0 0 0 14 9.5 A 4.5 4.5 0 0 0 18.5 14 A 4.5 4.5 0 0 0 23 9.5 A 4.5 4.5 0 0 0 18.5 5 z M 18.5 6 A 3.5 3.5 0 0 1 22 9.5 A 3.5 3.5 0 0 1 18.5 13 A 3.5 3.5 0 0 1 15 9.5 A 3.5 3.5 0 0 1 18.5 6 z "
     id="path849" />
  <path
     style="opacity:0.7;fill:#000000;fill-opacity:1;fill-rule:nonzero;stroke:none;stroke-width:0.001;stroke-linecap:butt;stroke-linejoin:round;stroke-miterlimit:4;stroke-dasharray:none;stroke-dashoffset:0;stroke-opacity:1"
     d="m 11.389086,3.614398 c -2.1478823,-2.1478835 -5.6302897,-2.1478835 -7.7781733,0 -2.1478835,2.1478835 -2.1478836,5.630291 0,7.778172 1.7397058,1.735745 4.4198198,2.106671 6.5655963,0.908742 l 1.73324,1.73324 c 0.351536,0.351536 1.057898,0.356316 1.414214,0 l 0.707106,-0.707106 c 0.35405,-0.35405 0.353702,-1.060513 0,-1.414214 L 12.292305,10.17447 C 13.48883,8.0312225 13.120293,5.3545441 11.389086,3.614398 Z"
     id="path835"
     inkscape:connector-curvature="0"
     sodipodi:nodetypes="cscccccccc" />
  <path
     style="opacity:1;fill:#c8c4b7;fill-opacity:1;fill-rule:nonzero;stroke:none;stroke-width:1.41428578;stroke-linecap:butt;stroke-linejoin:bevel;stroke-miterlimit:4;stroke-dasharray:none;stroke-dashoffset:0;stroke-opacity:1"
     d="M 7.5206621,3.0241483 A 4.5,4.5 0 0 0 3.0206629,7.5241475 4.5,4.5 0 0 0 7.5206631,12.024145 4.5,4.5 0 0 0 12.020662,7.5241485 4.5,4.5 0 0 0 7.5206621,3.0241483 Z m 0,1 a 3.5,3.5 0 0 1 3.4999989,3.5 A 3.5,3.5 0 0 1 7.5206631,11.024144 3.5,3.5 0 0 1 4.020663,7.5241473 3.5,3.5 0 0 1 7.5206621,4.0241483 Z"
     id="path828"
     inkscape:connector-curvature="0" />
  <circle
     style="opacity:1;fill:#fffefd;fill-opacity:1;fill-rule:nonzero;stroke:none;stroke-width:1.10000002;stroke-linecap:butt;stroke-linejoin:bevel;stroke-miterlimit:4;stroke-dasharray:none;stroke-dashoffset:0;stroke-opacity:1"
     id="path837"
     cx="7.5206623"
     cy="7.5241451"
     r="3.5" />
  <rect
     style="opacity:1;fill:#c8c4b7;fill-opacity:1;fill-rule:nonzero;stroke:none;stroke-width:1.10000002;stroke-linecap:butt;stroke-linejoin:bevel;stroke-miterlimit:4;stroke-dasharray:none;stroke-dashoffset:0;stroke-opacity:1"
     id="rect845"
     width="4"
     height="1"
     x="14.345394"
     y="-0.49753499"
     ry="4.5e-08"
     transform="rotate(45)" />
  <g
     style="display:inline;stroke-width:27.20000267;enable-background:new"
     transform="matrix(0.03109234,0.03109234,-0.03372203,0.03372203,-0.89112384,-23.902028)"
     id="g1151">
    <path
       style="fill:#fec589;fill-opacity:1;stroke:none;stroke-width:27.20000267"
       d="m 688.00003,319.35584 -32,81.13762 -31.99999,-81.13762 v -11.06422 h 63.99999 z"
       id="path1145"
       inkscape:connector-curvature="0" />
    <path
       style="color:#000000;display:inline;overflow:visible;visibility:visible;fill:#5d5d5d;fill-opacity:1;fill-rule:nonzero;stroke:none;stroke-width:27.20000267;marker:none;enable-background:accumulate"
       d="m 645.81253,374.67694 10.1875,25.81651 10.1875,-25.81651 c 0.0102,0.17481 -20.375,0 -20.375,0 z"
       id="path1147"
       inkscape:connector-curvature="0"
       sodipodi:nodetypes="cccc" />
    <path
       style="fill:#2f5fdd;fill-opacity:1;stroke:none;stroke-width:27.20000267"
       d="m 624.00004,319.35583 c 0,0 65.02041,1.58617 63.99999,0 V 175.39341 h -63.99999 z"
       id="path1149"
       inkscape:connector-curvature="0"
       sodipodi:nodetypes="ccccc" />
  </g>
</svg>

<svg xmlns="http://www.w3.org/2000/svg" viewBox="0 0 16 16"><path d="M18.5 5A4.5 4.5 0 0014 9.5a4.5 4.5 0 004.5 4.5A4.5 4.5 0 0023 9.5 4.5 4.5 0 0018.5 5zm0 1A3.5 3.5 0 0122 9.5a3.5 3.5 0 01-3.5 3.5A3.5 3.5 0 0115 9.5 3.5 3.5 0 0118.5 6z" fill="none"/><path d="M11.39 3.614a5.5 5.5 0 00-7.78 7.779 5.5 5.5 0 006.567.908l1.733 1.734c.351.351 1.058.356 1.414 0l.707-.708c.354-.354.354-1.06 0-1.414l-1.739-1.739a5.5 5.5 0 00-.903-6.56z" opacity=".7"/><path d="M7.52 3.024a4.5 4.5 0 00-4.5 4.5 4.5 4.5 0 004.5 4.5 4.5 4.5 0 004.5-4.5 4.5 4.5 0 00-4.5-4.5zm0 1a3.5 3.5 0 013.5 3.5 3.5 3.5 0 01-3.5 3.5 3.5 3.5 0 01-3.5-3.5 3.5 3.5 0 013.5-3.5z" fill="#c8c4b7"/><circle cx="7.521" cy="7.524" r="3.5" fill="#fffefd"/><rect width="4" height="1" x="14.345" y="-.498" ry="0" transform="rotate(45)" fill="#c8c4b7"/><g stroke-width="27.2"><path d="M9.731 8.259L6 10l1.741-3.731.373-.373 1.99 1.99z" fill="#fec589"/><path style="marker:none" d="M6.554 8.813L6 10l1.187-.554c-.005.006-.633-.633-.633-.633z" color="#000" overflow="visible" fill="#5d5d5d"/><path d="M7.741 6.269s1.968 2.075 1.99 1.99l4.855-4.855-1.99-1.99z" fill="#2f5fdd"/></g></svg>
